packages/components/src/components/icon/common/ic-verification-success.svg

<svg width="80" height="80" viewBox="0 0 80 80" fill="none" xmlns="http://www.w3.org/2000/svg">
<path d="M40.0003 71.0624L29.6476 78.6373L24.4692 66.9009L11.716 68.2846L13.0997 55.5314L1.36328 50.3531L8.93819 40.0003L1.36328 29.6476L13.0997 24.4692L11.716 11.716L24.4692 13.0997L29.6476 1.36328L40.0003 8.93819L50.3531 1.36328L55.5314 13.0997L68.2846 11.716L66.9009 24.4692L78.6373 29.6476L71.0624 40.0003L78.6373 50.3531L66.9009 55.5314L68.2846 68.2846L55.5314 66.9009L50.3531 78.6373L40.0003 71.0624Z" fill="#4BB4B3"/>
<path d="M32.4548 55.058C31.6078 55.058 30.7607 54.7285 30.0548 54.1165L21.1742 46.1997C19.7154 44.882 19.6213 42.6702 20.9389 41.2114C22.2566 39.7526 24.4684 39.6585 25.9272 40.9761L32.1416 46.6342L53.9875 26.0003C55.399 24.6356 57.611 24.6827 58.9755 26.0474C60.3405 27.4591 60.2935 29.6709 58.9285 31.0356L34.9019 54.0225C34.2431 54.7285 33.3489 55.058 32.4548 55.058Z" fill="white"/>
</svg>

<svg width="80" height="80" fill="none" xmlns="http://www.w3.org/2000/svg"><path d="m40 71.062-10.352 7.575-5.179-11.736-12.753 1.384L13.1 55.53 1.363 50.353 8.938 40 1.363 29.648 13.1 24.469l-1.384-12.753L24.469 13.1l5.179-11.737L40 8.938l10.353-7.575L55.531 13.1l12.754-1.384L66.9 24.469l11.736 5.179L71.062 40l7.575 10.353-11.736 5.178 1.384 12.754L55.53 66.9l-5.178 11.736L40 71.062Z" fill="#4BB4B3"/><path d="M32.455 55.058c-.847 0-1.694-.33-2.4-.941l-8.88-7.917c-1.46-1.318-1.554-3.53-.236-4.989 1.318-1.458 3.53-1.553 4.988-.235l6.215 5.658L53.987 26a3.55 3.55 0 0 1 4.988.047 3.55 3.55 0 0 1-.047 4.989L34.903 54.022c-.659.706-1.553 1.036-2.447 1.036Z" fill="#fff"/></svg>
